!!!COM: Haydn, Franz Joseph
!!!OPR: String Quartet in D Major
!!!ONM: Opus 33, No. 6
!!!OTL: Affettuoso 
!!!OMV: 4
!!!SCT: H III:42
!!!SCA: Thematisch-bibliographisches Werkevererzeichnis (A. van Hoboken)
!!!YOR: Richault Edition, volume 8
!!!EED: Frances Bennion
!!!ENC: Frances Bennion
!!!CDT: 1732/3/31/-1809/5/31/
!!!OCY: Österreich
!!!YEC: Copyright (c) 1994, 2000 Center for Computer Assisted Research in the Humanities
!!!YEM: Rights to all derivative editions reserved.
!!!YEM: Refer to licensing agreement for further details.
!!!YEN: United States of America
**kern	**kern	**kern	**kern
*k[f#c#]	*k[f#c#]	*k[f#c#]	*k[f#c#]
*D:	*D:	*D:	*D:
*clefF	*clefF	*clefC3	*clefF4
*M2/4	*M2/4	*M2/4	*M2/4
*tb96	*tb96	*tb96	*tb96
=0-	=0-	=0-	=0-
4.r	4.r	4.r	4.r
8dd	8r	8r	8r
=1	=1	=1	=1
8.d	4.r	4.r	8r
.	.	.	8D
32f#	.	.	.
32a	.	.	.
8g	.	.	8E
8e	8e	8A	8C#
=2	=2	=2	=2
8f#	8d	8A	8D
8g	8e	8B	8GG
8e	8c#	8A	8AA
8a	8e	8A	8C#
=3	=3	=3	=3
8f#	8f#	8A	8D
8b	8d	8f#	8BB
8a	8c#	8e	8E
8g#	8B	8d	8E
=4	=4	=4	=4
4g#	4B	4d	8AA
.	.	.	8A
8a	8A	8c#	8AA
8ee	8r	8r	8r
=5	=5	=5	=5
[8A	8r	8r	8r
32A]	8e	8A	8C#
32c#	.	.	.
32e	.	.	.
32g	.	.	.
8f#	8f#	8A	8D
8b	8r	8r	8r
=6	=6	=6	=6
8.e	8r	8r	8r
.	8e	8c#	8G
32f#	.	.	.
32g	.	.	.
8a	8f#	8d	8F#
8dd	8d	8A	8F#
=7	=7	=7	=7
8b	8b	8B	8G
8ee	8g	8B	8E
8dd	8f#	8A	8A
8cc#	8e	8A	8A
=8	=8	=8	=8
4cc#	4e	4D	8D
.	.	.	8d
8dd	8f#	8r	8D
8aa	8r	8r	8r
=9	=9	=9	=9
8.a	8r	8r	8r
.	8g	8e	8e
32b	.	.	.
32cc	.	.	.
8b	8f#	8d#	8d#
8bb	8r	8r	8r
=10	=10	=10	=10
8.f#	8r	8r	8r
.	4B	8f#	8D#
32g	.	.	.
32a	.	.	.
8g	.	8e	8E
8gg	8e	8A	8C#
=11	=11	=11	=11
8ff#	8d	8A	8D
8dd	8d	8A	8F#
8b	8d	8B	8G
8g	8d	8B	8B
=12	=12	=12	=12
4f#	4d	4A	4A
8e	8c#	4r	8AA
8ee	8r	.	8r
=13	=13	=13	=13
[8A	8r	8r	8r
32A]	8e	8A	8C#
32c#	.	.	.
32e	.	.	.
32g	.	.	.
8f#	8d	8A	8D
8b	8r	8r	8r
=14	=14	=14	=14
8.e	8r	8r	8r
.	8c#	8e	8G
32f#	.	.	.
32g	.	.	.
8a	8d	8f#	8F#
8ddd	8a 8d	8d	8F#
=15	=15	=15	=15
8bb	8b 8d	4d	4G
8gg	4r	.	.
8ee	.	8r	8r
8cc#	8g	16g	8A
.	.	16e	.
=16	=16	=16	=16
4dd	4f#	4d	4D
8r	8r	8r	8r
8r	8r	8r	8A
=17	=17	=17	=17
8r	4.r	2r	4.f
8a	.	.	.
8dd	.	.	.
8cc#	8b-	.	8g
=18	=18	=18	=18
8dd	4.a	8r	8f
8ee	.	8A	8c#
8ff	.	8a	8d
8gg	8dd	8b-	8B-
=19	=19	=19	=19
8ff	8dd	4.a	4.A
8ee	8cc#	.	.
8ee	8cc#	.	.
8r	8g	8d	8BB-
=20	=20	=20	=20
2r	8f	8d	4AA
.	8e	8c#	.
.	8e	8c#	8r
.	8r	8r	8A
=21	=21	=21	=21
8r	4.r	2r	4.g
8cc#	.	.	.
8bb-	.	.	.
8aa	8A	.	8f
=22	=22	=22	=22
8gg	4a	8r	8c#
8ff	.	8d	8d
8ee	8g	8G	8G
8dd	8f	8G#	8G#
=23	=23	=23	=23
8cc#	8e	4A	4A
8ee	8c#	.	.
8ee	8c#	8r	8r
8r	8d	8F	8GG#
=24	=24	=24	=24
4.r	8c#	8E	4AA
.	8e	8C#	.
.	8e	8C#	8r
8r	8r	8r	8A
=25	=25	=25	=25
8r	4.r	4.r	4.a
8cc	.	.	.
8ccc	.	.	.
8aa	8ee-	8cc	8f#
=26	=26	=26	=26
8aa	8ee-	8cc	8f#
8bb-	8dd	8b-	8g
8bb-	8dd	8b-	8g
8aa	8ee-	8cc	8r
=27	=27	=27	=27
8aa	8ee-	8cc	4.r
8gg	8dd	8b-	.
8gg	8dd	8b-	.
8ddd	8ff	8b	8g#
=28	=28	=28	=28
8ddd	8ff	8b	8g#
8ccc#	8ee	8a	8a
8ccc#	8ee	8a	8a
8bb-	8gg	8r	8r
=29	=29	=29	=29
8cc#	8ee	8r	8r
4r	4r	8B-	8G
.	.	8g	8e
8aa	8ff	8r	8r
=30	=30	=30	=30
8dd	8f	8r	8r
4r	4r	8A	8F
.	.	8f	8d
8ff	8a	8d	8D
=31	=31	=31	=31
8ee-	4b-	4G	4G
8gg	.	.	.
8dd	8f	8A	8A
8cc#	8e	8A	8A
=32	=32	=32	=32
4dd	4d	4D	8D
.	.	.	8d
8r	8r	8r	8D
8dd	8r	8r	8r
=33	=33	=33	=33
8.d	4.r	4.r	8r
.	.	.	8D
32f#	.	.	.
32a	.	.	.
8g	.	.	8E
8e	8e	8A	8C#
=34	=34	=34	=34
8f#	8d	8A	8D
8g	8e	8B	8GG
8e	8c#	8A	8AA
8a	8e	8A	8C#
=35	=35	=35	=35
8f#	8f#	8A	8D
8b	8d	8f#	8BB
8a	8c#	8e	8E
8g#	8B	8d	8E
=36	=36	=36	=36
4g#	4B	4d	8AA
.	.	.	8A
8a	8A	8c#	8AA
8ee	8r	8r	8r
=37	=37	=37	=37
[8A	8r	8r	8r
32A]	8e	8A	8C#
32c#	.	.	.
32e	.	.	.
32g	.	.	.
8f#	8f#	8A	8D
8b	8r	8r	8r
=38	=38	=38	=38
8.e	8r	8r	8r
.	8e	8c#	8G
32f#	.	.	.
32g	.	.	.
8a	8f#	8d	8F#
8dd	8d	8A	8F#
=39	=39	=39	=39
8b	8b	8B	8G
8ee	8g	8B	8E
8dd	8f#	8A	8A
8cc#	8e	8A	8A
=40	=40	=40	=40
4cc#	4e	4D	8D
.	.	.	8d
8dd	8f#	4r	8D
8dd	8r	.	8r
=41	=41	=41	=41
8d	4.r	4.r	8r
24d	.	.	8D
24f#	.	.	.
24a	.	.	.
24g	.	.	8E
24e	.	.	.
24c#	.	.	.
24A	8e	8A	8C#
24e	.	.	.
24g	.	.	.
=42	=42	=42	=42
8f#	8d	8A	8D
24g	8e	8B	8GG
24a	.	.	.
24g	.	.	.
8e	8c#	8A	8AA
24a	8e	8A	8C#
24b	.	.	.
24a	.	.	.
=43	=43	=43	=43
24f#	8f#	8A	8D
24g#	.	.	.
24a	.	.	.
24b	8d	8f#	8BB
24cc#	.	.	.
24dd	.	.	.
24cc#	8e	8e	8E
24ee	.	.	.
24cc#	.	.	.
24dd	8B	8d	8E
24b	.	.	.
24g#	.	.	.
=44	=44	=44	=44
4g#	4B	4d	8AA
.	.	.	8A
8a	8A	8c#	8AA
8ee	8r	8r	8r
=45	=45	=45	=45
24A	8r	8r	8r
24c#	.	.	.
24d	.	.	.
24e	8e	8A	8C#
24f#	.	.	.
24g	.	.	.
8f#	8f#	8A	8D
8b	8r	8r	8r
=46	=46	=46	=46
24c#	8r	8r	8r
24d	.	.	.
24e	.	.	.
24f#	8e	8c#	8G
24g	.	.	.
24g#	.	.	.
24a	8f#	8d	8F#
24b	.	.	.
24cc#	.	.	.
24dd	8d	8A	8F#
24ee	.	.	.
24ff#	.	.	.
=47	=47	=47	=47
24b	8b	8G	8G
24ff#	.	.	.
24gg	.	.	.
24bb	8g	8e	8E
24gg	.	.	.
24ee	.	.	.
24ff#	8a	8d	8A
24aa	.	.	.
24ff#	.	.	.
24gg	8e	8A	8A
24ee	.	.	.
24cc#	.	.	.
=48	=48	=48	=48
4dd	4f#	4D	8D
.	.	.	8d
8r	4r	4r	8D
8aa	.	.	8r
=49	=49	=49	=49
8.a	8r	8r	8r
.	8g	8e	8e
32b	.	.	.
32cc	.	.	.
8b	8f#	8d#	8d#
8bb	8r	8r	8r
=50	=50	=50	=50
8.f#	8r	8r	8r
.	4B	8f#	8D#
32g	.	.	.
32a	.	.	.
8g	.	8e	8E
8gg	8e	8A	8C#
=51	=51	=51	=51
8ff#	8d	8A	8D
8dd	8d	8A	8F#
8b	8d	8B	8G
8g	8d	8B	8B
=52	=52	=52	=52
4f#	4d	4A	4A
8e	8c#	4r	8AA
8ee	8r	.	8r
=53	=53	=53	=53
[8A	8r	8r	8r
32A]	8e	8A	8C#
32c#	.	.	.
32e	.	.	.
32g	.	.	.
8f#	8d	8A	8D
8b	8r	8r	8r
=54	=54	=54	=54
8.e	8r	8r	8r
.	8c#	8e	8G
32f#	.	.	.
32g	.	.	.
8a	8d	8f#	8F#
8ddd	8a 8d	8d	8F#
=55	=55	=55	=55
8bb	4b 4d	4d	4G
8gg	.	.	.
8ee	8r	8r	8r
8cc#	8g	16g	8A
.	.	16e	.
=56	=56	=56	=56
4dd	4f#	4d	4D
8r	4r	4r	4r
8aa	.	.	.
=57	=57	=57	=57
8.a	8r	8r	8r
.	8g	8e	8e
32b	.	.	.
32cc	.	.	.
24b	8f#	8d#	8d#
24cc#	.	.	.
24dd#	.	.	.
24ee	8r	8r	8r
24ff#	.	.	.
24gg	.	.	.
=58	=58	=58	=58
24aa	8r	8r	8r
24bb	.	.	.
24aa	.	.	.
24gg	4B	8f#	8D#
24ff#	.	.	.
24aa	.	.	.
24gg	.	8e	8E
24bb	.	.	.
24aa	.	.	.
24gg	8e	8A	8C#
24ff#	.	.	.
24ee	.	.	.
=59	=59	=59	=59
24ff#	8d	8A	8D
24aa	.	.	.
24gg	.	.	.
24ff#	8d	8A	8F#
24ee	.	.	.
24dd	.	.	.
24cc#	8d	8B	8G
24b	.	.	.
24a	.	.	.
24g	8d	8B	8B
24f#	.	.	.
24e	.	.	.
=60	=60	=60	=60
4d	4f#	4A	4A
8c#	8e	4r	8AA
8ee	8r	.	8r
=61	=61	=61	=61
24A	8r	8r	8r
24c#	.	.	.
24d	.	.	.
24e	8e	8A	8C#
24f#	.	.	.
24g	.	.	.
8f#	8d	8A	8D
8b	8r	8r	8r
=62	=62	=62	=62
24c#	8r	8r	8r
24d	.	.	.
24e	.	.	.
24f#	8c#	8e	8G
24g	.	.	.
24g#	.	.	.
24a	8A	8f#	8F#
24b	.	.	.
24cc#	.	.	.
24dd	8a 8d	8d	8F#
24ee	.	.	.
24ff#	.	.	.
=63	=63	=63	=63
24b	4b 4d	4d	4G
24ff#	.	.	.
24gg	.	.	.
24bb	.	.	.
24gg	.	.	.
24ee	.	.	.
24ff#	8r	8r	8r
24aa	.	.	.
24ff#	.	.	.
24gg	8g	8e	8A
24ee	.	.	.
24cc#	.	.	.
=64	=64	=64	=64
4dd	4f#	4d	4D
4r	4r	4r	8r
.	.	.	8A
=65	=65	=65	=65
4.r	8r	2r	4.f
.	8a	.	.
.	8dd	.	.
8a	8cc#	.	8g
=66	=66	=66	=66
4.aa	8dd	8r	8f
.	8ee	8A	8c#
.	8ff	8a	8d
8ddd	8gg	8b-	8B-
=67	=67	=67	=67
8ddd	8ff	4.a	4A
8ccc#	8ee	.	.
8ccc#	8ee	.	4r
8fff	8dd	8g#	.
=68	=68	=68	=68
8fff	8dd	8g#	4.r
8eee	8cc#	8a	.
8eee	8cc#	8a	.
8r	8r	8r	8A
=69	=69	=69	=69
4.r	8r	2r	4.g
.	8cc#	.	.
.	8bb-	.	.
8aa	8aa	.	8f
=70	=70	=70	=70
4aaa	8gg	2r	8c#
.	8ff	.	8d
8ggg	8ee	.	8G
8fff	8dd	.	8G#
=71	=71	=71	=71
8eee	4.cc#	8r	4A
8aaa	.	8A	.
8aaa	.	8a	4r
8fff	8dd	8g#	.
=72	=72	=72	=72
8eee	4cc#	4a	4.r
8ccc#	.	.	.
8aa	8r	8r	.
8r	8r	8r	8A
=73	=73	=73	=73
8r	8r	4.r	4.a
8aa	8cc	.	.
8ccc	8ee-	.	.
8eee-	8aa	8cc	8f#
=74	=74	=74	=74
8eee-	8aa	8cc	8f#
8ddd	8bb-	8b-	8g
8ddd	8bb-	8b-	8g
8ccc	8ff#	8ee-	8a
=75	=75	=75	=75
8ccc	8ff#	8ee-	8a
8bb-	8gg	8dd	8b-
8bb-	8gg	8dd	8b-
8fff	8ddd	8g#	8r
=76	=76	=76	=76
8fff	8ddd	8g#	2r
8eee	8ccc#	8a	.
8eee	8ccc#	8a	.
8ggg	8r	8r	.
=77	=77	=77	=77
4ccc#	8r	8r	8r
.	8ee	8b-	8g
8r	8ee	8b-	8g
8aa	8r	8r	8r
=78	=78	=78	=78
8fff	8r	8r	8r
4r	8dd	8a	8f
.	8dd	8a	8f
[8fff	8dd	8a	8d
=79	=79	=79	=79
8fff]	4b-	4b-	4g
8eee	.	.	.
8ggg	8r	8r	8r
8ccc#	8ee	8g	8A
=80	=80	=80	=80
4ddd	4dd	4f	4d
8r	8r	8r	8r
8dd	8r	8r	8r
=81	=81	=81	=81
8.d	4.r	4.r	8r
.	.	.	8D
32f#	.	.	.
32a	.	.	.
8g	.	.	8E
8e	8e	8A	8C#
=82	=82	=82	=82
8f#	8d	8A	8D
8g	8e	8B	8GG
8e	8c#	8A	8AA
8a	8e	8A	8C#
=83	=83	=83	=83
8f#	8f#	8A	8D
8b	8d	8f#	8BB
8a	8c#	8e	8E
8g#	8B	8d	8E
=84	=84	=84	=84
4g#	4B	4d	8AA
.	.	.	8A
8a	8A	8c#	8AA
8ee	8r	8r	8r
=85	=85	=85	=85
[8A	8r	8r	8r
32A]	8e	8A	8C#
32c#	.	.	.
32e	.	.	.
32g	.	.	.
8f#	8d	8A	8D
8b	8r	8r	8r
=86	=86	=86	=86
8.e	8r	8r	8r
.	8e	8c#	8G
32f#	.	.	.
32g	.	.	.
8a	8f#	8d	8F#
8dd	8d	8A	8F#
=87	=87	=87	=87
8b	8b	8B	8G
8ee	8g	8B	8E
8dd	8f#	8A	8A
8cc#	8e	8A	8A
=88	=88	=88	=88
4cc#	4e	4D	8D
.	.	.	8d
8dd	8f#	4r	8D
8ddd	8r	.	8r
=89	=89	=89	=89
8.dd	4.r	4.r	8r
.	.	.	8D
32ff#	.	.	.
32aa	.	.	.
16gg	.	.	8E
16gg	.	.	.
16r	8e	8A	8C#
16ee	.	.	.
=90	=90	=90	=90
16ff#	8d	8A	8D
16ff#	.	.	.
16r	8e	8B	8GG
16gg	.	.	.
16ee	8c#	8A	8AA
16ee	.	.	.
16r	8e	8A	8C#
16aa	.	.	.
=91	=91	=91	=91
16ff#	8f#	8A	8D
16ff#	.	.	.
16r	8f#	8d	8BB
16ddd	.	.	.
16r	8e	8e	8E
16ccc#	.	.	.
16r	8B	8d	8E
16gg#	.	.	.
=92	=92	=92	=92
4gg#	4B	4d	8AA
.	.	.	8A
8aa	8A	8c#	8AA
8eee	8r	8r	8r
=93	=93	=93	=93
8.ee	8r	8r	8r
.	8A	16g	8C#
32ff#	.	16e	.
32gg	.	.	.
16ff#	8f#	8d	8D
16ff#	.	.	.
16r	8r	8r	8DD
16bb	.	.	.
=94	=94	=94	=94
16ee	8r	8r	8r
16ee	.	.	.
16r	8cc#	8a	8G
16aa	.	.	.
16dd	8r	8r	8r
16dd	.	.	.
16r	8dd	8a	8F#
16ddd	.	.	.
=95	=95	=95	=95
16r	8d	8b	8G
16bb	.	.	.
16r	8b	8e	8E
16gg	.	.	.
16r	8a	8a	8A
16ff#	.	.	.
16aa	8g	8A	8AA
16cc#	.	.	.
=96	=96	=96	=96
4ee	4g	8d	8D
.	.	8A	8AA
8dd	8f#	8D	8DD
8aa	8r	8r	8r
=97	=97	=97	=97
8.a	8r	8r	8r
.	8g	8e	8e
32b	.	.	.
32cc	.	.	.
8b	8f#	8d#	8d#
8bb	8r	8r	8r
=98	=98	=98	=98
8.f#	8r	8r	8r
.	4B	8f#	8D#
32g	.	.	.
32a	.	.	.
8g	.	8e	8E
8gg	8e	8A	8C#
=99	=99	=99	=99
8ff#	8d	8A	8D
8dd	8d	8A	8F#
8b	8d	8B	8G
8g	8d	8B	8B
=100	=100	=100	=100
4f#	4d	4A	4A
8e	8c#	4r	8AA
8ee	8r	.	8r
=101	=101	=101	=101
8A	8r	8r	8r
32A	8e	8A	8C#
32c#	.	.	.
32e	.	.	.
32g	.	.	.
8f#	8d	8A	8D
8b	8r	8r	8r
=102	=102	=102	=102
8.e	8r	8r	8r
.	8c#	8e	8G
32f#	.	.	.
32g	.	.	.
8a	8d	8f#	8F#
8ddd	8a 8d	8d	8F#
=103	=103	=103	=103
8bb	4b 4d	4d	4G
8gg	.	.	.
8ee	8r	8r	8r
8cc#	8g	16g	8A
.	.	16e	.
=104	=104	=104	=104
4dd	4f#	4d	4D
8r	4r	4r	4r
8aa	.	.	.
=105	=105	=105	=105
8.a	8r	8r	8r
.	8g	8e	8e
32b	.	.	.
32cc	.	.	.
16b	8f#	8d#	8d#
16b	.	.	.
16r	8r	8r	8B
16bb	.	.	.
=106	=106	=106	=106
16ff#	8r	8r	8r
16ff#	.	.	.
16r	8B	8f#	8D#
16aa	.	.	.
16gg	8B	8e	8E
16gg	.	.	.
16r	8ee	8A	8C#
16ggg	.	.	.
=107	=107	=107	=107
16r	8dd	8A	8D
16fff#	.	.	.
16r	8dd	8A	8F#
16ddd	.	.	.
16r	8dd	8B	8G
16bb	.	.	.
16r	8dd	8b	8B
16gg	.	.	.
=108	=108	=108	=108
8.ff#	4dd	4a	4A
32gg	.	.	.
32ff#	.	.	.
8ee	8cc#	4r	8AA
8eee	8r	.	8r
=109	=109	=109	=109
8.ee	8r	8r	8r
.	8a	8e	8c#
32ff#	.	.	.
32gg	.	.	.
16ff#	8a	8d	8d
16ff#	.	.	.
16r	8r	8r	8D
16bb	.	.	.
=110	=110	=110	=110
16ee	8r	8r	8r
16ee	.	.	.
16r	8cc#	8a	8G
16aa	.	.	.
16dd	8r	8r	8r
16dd	.	.	.
16r	8dd	8a	8F#
16b	.	.	.
=111	=111	=111	=111
16e	8r	8r	8r
16e	.	.	.
16r	8c#	8A	8GG
16a	.	.	.
16d	8r	8r	8r
16d	.	.	.
8r	8d	8A	8FF#
=112	=112	=112	=112
4.r	4.r	4.r	4.r
8ddd	8a 8d	8f#	8F#
=113	=113	=113	=113
8bb	4b 4d	4g	4G
8gg	.	.	.
8ee	8r	8r	8r
8cc# 8e	8e 8a	8A 8e	8AA
=114	=114	=114	=114
4dd 4d	4f# 4a	4f# 4A	4DD
4r	4r	4r	4r
==	==	==	==
*-	*-	*-	*-
!!!RWG1: This file contains only pitch and duration data.
!!!RWG2: Transposing instruments are not transposed.
!!!RWG3: Spines may have incompatible meters.
!!!RWG4: Durations of rests and tied notes may be interpreted.
!!!RWG: Key is interpreted using the Humdrum key tool.
!!!GTL: 6 Quators ("Jungfernquartette")
!!!AFT: stage1
!!!END: 1997/04/15
!!format changes:
!!content changes:
!!public access: complete
!!!KEY: 3614315738
!!!EMD: Converted from MuseData to Humdrum Dec 16, 2000, by Andreas Kornstaedt using muse2kern.
